!!!COM: Music21
!!!OTL: Alalá
!!!OMV: pezas_alalas_alala-11_alala-partitura.musicxml
**kern
*I"Bagpipes
*I'Bag
*clefG^2
*k[]
*M4/4
*met(c)
=1
!LO:TX:a:t=Largo
*MM48
!LO:TX:a:t=[quarter]=48
4gg
4gg
4gg
4ee
=
2gg
4gg
4gg
=
2.bb
4bb-X
=
4bb-X
4aa
[2ff
=
4ff]
4aa
4ccc
4aa
=
2.gg;
4r
=||
*M4/4
*met(c)
!LO:TX:a:t=Largo
*MM48
!LO:TX:a:t=[quarter]=48
4gg
4gg
4gg
4ee
=
2gg
4gg
4gg
=
2.bb
4bb-X
!!linebreak:original
=
4bb-X
4aa
[2ff
=
4ff]
4aa
4ccc
4aa
=
2.gg;
4r
=||
4gg
4aa
4bb-X
4bb-
=
2aa
4aa
[4gg
=
16ggLL]
16ff
16ee-X
[16ddJJ
2dd]
4ff
!!linebreak:original
=
4ee-X
4ff
4aa
[4gg
=
4gg]
4ff
4dd
[4ee-X
=
16ee-LL]
16ee-X
16dd
[16ccJJ
2.cc;]
=||
4gg
4aa
4bb-X
4bb-
=
2aa
4aa
[4gg
=
16ggLL]
16ff
16ee-X
[16ddJJ
2dd]
4ff
!!linebreak:original
=
4ee-X
4ff
4aa
[4gg
=
4gg]
4ff
4dd
[4ee-X
=
16ee-LL]
16ee-X
16dd
[16ccJJ
2.cc;]
=||
*-
